X: 20
T:The Crocodile
M:3/8
L:1/16
R:Bourree
Z:Steve Mansfield
K:C
ed eg ^fd | e3^fga | _b2a2g2 | _b2a2g2 | ed eg ^fd | e3^fga |
_b2a2g2 | e6 :: c'2b2a2 | g4fe | de fg ab |
a2g2e2 | c'2b2a2 | g4fe | de fg ab | c'6 :|
<end>
<start>
